X: 23
T: The Fairy Prince
%R: slip-jig
B: Cahusac "Annual Collection of Twenty-four favorite Country Dances For the Year 1809", p.12 #1
F: http://imslp.org/wiki/24_Country_Dances_for_the_Year_1809_%28Various%29
F: http://javanese.imslp.info/files/imglnks/usimg/0/0d/IMSLP351863-PMLP71785-wm_cahusac_24_dances_1809.pdf
Z: 2015 by John Chambers  <jc:trillian.mit.edu>
M: 9/8
L: 1/8
K: Bb
% - - - - - - - - - - - - - - - - - - - - - - - - - - - - -
|:\
B3 dcB fed | cde GcB AGF |\
B3 dcB fed | ced cBA B2z :|
|:\
f2(=e/f/) f2(e/f/) dcB | f2(=e/f/) fef dcB |\
f2(=e/f/) f2(e/f/) cBA | GBA GF=E F2z :|
|:\
b2B b2B b2B | gfe dcB AGF |\
bbb bbb bag | fed cBA B2z :|
% - - - - - - - - - - Dance description - - - - - - - - - -
%%begintext align
%% Sett & hands across, back again, Down the
%% mid: up again, hands 4 half round, right & left.
%%endtext

%%sep 1 1 500
%%sep 1 1 500
